src/assets/icons/languages/js.svg

<svg viewBox="0 0 122 122" fill="none" xmlns="http://www.w3.org/2000/svg">
<g clip-path="url(#clip0_652_10843)">
<mask id="mask0_652_10843" style="mask-type:alpha" maskUnits="userSpaceOnUse" x="8" y="0" width="106" height="122">
<path d="M60.8523 0L113.552 30.4261V91.2784L60.8523 121.705L8.15266 91.2784V30.4261L60.8523 0Z" fill="black"/>
</mask>
<g mask="url(#mask0_652_10843)">
<path d="M122 0H0V122H122V0Z" fill="#F7DF1E"/>
<path d="M79.0601 84.7989C81.0745 88.088 83.6954 90.5056 88.3306 90.5056C92.2246 90.5056 94.712 88.5595 94.712 85.8704C94.712 82.6479 92.1563 81.5066 87.8703 79.6318L85.5209 78.6238C78.7394 75.7347 74.2343 72.1154 74.2343 64.464C74.2343 57.4159 79.6046 52.0504 87.9973 52.0504C93.9723 52.0504 98.2679 54.1299 101.363 59.5748L94.0453 64.2735C92.4341 61.3844 90.6959 60.2463 87.9973 60.2463C85.2447 60.2463 83.5001 61.9924 83.5001 64.2735C83.5001 67.0928 85.2463 68.2341 89.2783 69.9803L91.6277 70.9867C99.6124 74.4108 104.121 77.9015 104.121 85.7497C104.121 94.2107 97.4742 98.8459 88.5481 98.8459C79.8205 98.8459 74.182 94.6869 71.423 89.2357L79.0601 84.7989ZM45.8624 85.6132C47.3387 88.2324 48.6817 90.4469 51.9105 90.4469C54.998 90.4469 56.9458 89.2389 56.9458 84.5417V52.587H66.3433V84.6687C66.3433 94.3996 60.6381 98.8285 52.3105 98.8285C44.7861 98.8285 40.4287 94.9345 38.2126 90.2445L45.8624 85.6132Z" fill="black"/>
</g>
</g>
<defs>
<clipPath id="clip0_652_10843">
<rect width="121.705" height="121.705" fill="white"/>
</clipPath>
</defs>
</svg>

<svg xmlns="http://www.w3.org/2000/svg" fill="none" viewBox="0 0 122 122"><g clip-path="url(#a)"><mask id="b" width="106" height="122" x="8" y="0" maskUnits="userSpaceOnUse" style="mask-type:alpha"><path fill="#000" d="m60.852 0 52.7 30.426v60.852l-52.7 30.427-52.7-30.427V30.426L60.853 0Z"/></mask><g mask="url(#b)"><path fill="#F7DF1E" d="M122 0H0v122h122V0Z"/><path fill="#000" d="M79.06 84.799c2.014 3.289 4.635 5.707 9.27 5.707 3.895 0 6.382-1.947 6.382-4.636 0-3.222-2.556-4.363-6.842-6.238l-2.35-1.008c-6.78-2.89-11.286-6.509-11.286-14.16 0-7.048 5.37-12.414 13.763-12.414 5.975 0 10.27 2.08 13.366 7.525l-7.318 4.698c-1.61-2.889-3.35-4.027-6.048-4.027-2.752 0-4.497 1.746-4.497 4.027 0 2.82 1.746 3.961 5.778 5.707l2.35 1.007c7.984 3.424 12.493 6.915 12.493 14.763 0 8.46-6.647 13.096-15.573 13.096-8.728 0-14.366-4.16-17.125-9.61l7.637-4.437Zm-33.198.814c1.477 2.62 2.82 4.834 6.048 4.834 3.088 0 5.036-1.208 5.036-5.905V52.587h9.397v32.082c0 9.73-5.705 14.16-14.033 14.16-7.524 0-11.881-3.894-14.097-8.584l7.65-4.632Z"/></g></g><defs><clipPath id="a"><path fill="#fff" d="M0 0h121.705v121.705H0z"/></clipPath></defs></svg>
